


d1 $ sound "bd bd ~ " # speed "1"

d2 $ sound "bd bd [hh:1]" # speed "0.2"
hush
d2 $ sound "clean"

d1 $ up "0 1 2 3 4 5 6 7 8 9 10 11" # sound "bass"
d1 $ up "0 1 2 3 4 5 6 7 8 9 10 11" # sound "bd:7"

d1 $ up (run 12) # sound "h:4"

d1 silence 
d1 $ sound "bd(5,8)"
d2 $ sound "hh hh hh, [ hh hh [hh:3 hh:2] hh]"
hush
